static/portfolio/human.svg

<?xml version="1.0" encoding="utf-8"?>
<!-- Generator: Adobe Illustrator 25.2.0, SVG Export Plug-In . SVG Version: 6.00 Build 0)  -->
<svg version="1.1" xmlns="http://www.w3.org/2000/svg" xmlns:xlink="http://www.w3.org/1999/xlink" x="0px" y="0px"
	 viewBox="0 0 400 400" style="enable-background:new 0 0 400 400;" xml:space="preserve">
<style type="text/css">
	.st0{filter:url(#Adobe_OpacityMaskFilter);}
	.st1{fill-rule:evenodd;clip-rule:evenodd;fill:#000000;}
	.st2{mask:url(#mask-2_2_);fill-rule:evenodd;clip-rule:evenodd;fill:#000000;}
</style>
<g id="레이어_2">
</g>
<g id="레이어_1">
	<g id="Group-12">
		<defs>
			<filter id="Adobe_OpacityMaskFilter" filterUnits="userSpaceOnUse" x="80.2" y="30.4" width="239.6" height="344.1">
				<feColorMatrix  type="matrix" values="1 0 0 0 0  0 1 0 0 0  0 0 1 0 0  0 0 0 1 0"/>
			</filter>
		</defs>
		<mask maskUnits="userSpaceOnUse" x="80.2" y="30.4" width="239.6" height="344.1" id="mask-2_2_">
			<g class="st0">
				<polygon id="path-1_2_" class="st1" points="80.2,30.4 319.8,30.4 319.8,374.5 80.2,374.5 				"/>
			</g>
		</mask>
		<path id="Fill-10" class="st2" d="M285.4,38.9c-7.8-2.5-15.5-5.2-23.2-7.8c-9.6-3.4-18.7,6.2-18.4,19.1c0.9,24,1.7,48.1,2.6,72.1
			c0.3,8-3.6,15.2-9.7,18.2c-12.1,5.8-24.3,11.5-36.7,17c-12.4-5.5-24.6-11.2-36.7-17c-6.2-3-10-10.3-9.7-18.2
			c0.9-24,1.7-48.1,2.6-72.1c0.4-12.9-8.8-22.4-18.4-19.1c-7.7,2.7-15.4,5.3-23.2,7.8c-6.3,2.1-11.1,9.1-11.7,17.4
			c-2.2,28.4-4.5,56.8-6.7,85.2c-0.6,7.9,3,15.4,9.1,18.6c13.5,7.1,12.4,30.5-2.5,35.7c-6.7,2.3-11.6,9.1-12.2,17
			c-3.4,43.4-6.8,86.8-10.2,130.2c-0.6,8.3,4,16.1,11.6,19.2c9.3,3.7,18.8,7.4,28.2,11c11.9,4.5,24.6-4.3,25.1-17.2
			c1.4-39.1,2.8-78.2,4.2-117.2c0.3-8,4.9-14.9,11.6-17.5c13.1-5.1,26.1-10.5,39-16c12.8,5.5,25.8,10.8,39,16
			c6.7,2.6,11.3,9.6,11.6,17.5c1.4,39.1,2.8,78.1,4.2,117.2c0.4,12.9,13.1,21.7,25.1,17.2c9.5-3.6,18.9-7.2,28.2-11
			c7.6-3.1,12.3-10.8,11.6-19.2c-3.4-43.4-6.8-86.8-10.2-130.2c-0.7-7.9-5.5-14.7-12.2-17c-14.9-5.2-16.1-28.6-2.5-35.7
			c6.2-3.2,9.7-10.7,9.1-18.6c-2.2-28.4-4.5-56.8-6.7-85.2C296.4,48,291.7,41,285.4,38.9"/>
	</g>
</g>
</svg>

<svg width="400" height="400" viewBox="0 0 400 400" fill="none" xmlns="http://www.w3.org/2000/svg">
<mask id="mask0" mask-type="alpha" maskUnits="userSpaceOnUse" x="80" y="30" width="240" height="345">
<path fill-rule="evenodd" clip-rule="evenodd" d="M80.2 30.4H319.8V374.5H80.2V30.4Z" fill="white"/>
</mask>
<g mask="url(#mask0)">
<path fill-rule="evenodd" clip-rule="evenodd" d="M285.4 38.9C277.6 36.4 269.9 33.7 262.2 31.1C252.6 27.7 243.5 37.3 243.8 50.2C244.7 74.2 245.5 98.3 246.4 122.3C246.7 130.3 242.8 137.5 236.7 140.5C224.6 146.3 212.4 152 200 157.5C187.6 152 175.4 146.3 163.3 140.5C157.1 137.5 153.3 130.2 153.6 122.3C154.5 98.3 155.3 74.2 156.2 50.2C156.6 37.3 147.4 27.8 137.8 31.1C130.1 33.8 122.4 36.4 114.6 38.9C108.3 41 103.5 48 102.9 56.3C100.7 84.7 98.4 113.1 96.2 141.5C95.6 149.4 99.2 156.9 105.3 160.1C118.8 167.2 117.7 190.6 102.8 195.8C96.1 198.1 91.2 204.9 90.6 212.8C87.2 256.2 83.8 299.6 80.4 343C79.8 351.3 84.4 359.1 92 362.2C101.3 365.9 110.8 369.6 120.2 373.2C132.1 377.7 144.8 368.9 145.3 356C146.7 316.9 148.1 277.8 149.5 238.8C149.8 230.8 154.4 223.9 161.1 221.3C174.2 216.2 187.2 210.8 200.1 205.3C212.9 210.8 225.9 216.1 239.1 221.3C245.8 223.9 250.4 230.9 250.7 238.8C252.1 277.9 253.5 316.9 254.9 356C255.3 368.9 268 377.7 280 373.2C289.5 369.6 298.9 366 308.2 362.2C315.8 359.1 320.5 351.4 319.8 343C316.4 299.6 313 256.2 309.6 212.8C308.9 204.9 304.1 198.1 297.4 195.8C282.5 190.6 281.3 167.2 294.9 160.1C301.1 156.9 304.6 149.4 304 141.5C301.8 113.1 299.5 84.7 297.3 56.3C296.4 48 291.7 41 285.4 38.9Z" fill="black"/>
</g>
</svg>
